X:101
T:When the Tide Comes In
T:Factory Smoke
R:hornpipe
C:James Hill (?) (1811-1853), Northumberland
Z:id:hn-hornpipe-101
M:C|
K:Gm
dc | BAGF GABc | d2G2 Gbag | f2dc BcdB | c2AG F2dc |
BAGF GABc | dg^fa g3d | edcB cedc | B2G2 G2 :|
|: ga | bgdB gdBG | DGBd gabg | afcA fcAF | CFAc fcAc |
BAGF GABc | dg^fa g3d | edcB cedc | B2G2 G2 :|

